melody-of-light/img/category/category-8.svg

<svg width="20" height="20" viewBox="0 0 20 20" fill="none" xmlns="http://www.w3.org/2000/svg">
<g clip-path="url(#clip0)">
<line x1="7.01809" y1="18.8296" x2="14.3564" y2="18.8296" stroke="#93939F" stroke-width="0.846728" stroke-linecap="round"/>
<path d="M10.2979 18.8297L16.474 10.6646C16.514 10.6118 16.5118 10.5382 16.4688 10.4878L10.7565 3.80029" stroke="#93939F" stroke-width="0.846728" stroke-linecap="round"/>
<path fill-rule="evenodd" clip-rule="evenodd" d="M11.8622 3.14384C11.9791 2.94135 11.9098 2.68242 11.7073 2.56551L9.69073 1.40126C9.48824 1.28435 9.22931 1.35373 9.1124 1.55622L8.02844 3.43371C7.94415 3.5797 7.7813 3.6597 7.61288 3.65233C6.30835 3.5953 5.01638 4.18292 4.21335 5.28754C4.07586 5.47667 4.14697 5.73732 4.34946 5.85423L7.43538 7.63588L10.5213 9.41754C10.7238 9.53445 10.9851 9.46571 11.0801 9.25208C11.6352 8.0044 11.4982 6.59182 10.7966 5.49061C10.7061 5.34844 10.6939 5.16742 10.7782 5.02144L11.8622 3.14384Z" fill="#93939F"/>
</g>
<defs>
<clipPath id="clip0">
<rect width="20" height="20" fill="white"/>
</clipPath>
</defs>
</svg>

<svg width="20" height="20" fill="none" xmlns="http://www.w3.org/2000/svg"><g clip-path="url(#clip0)"><path stroke="#93939F" stroke-width=".847" stroke-linecap="round" d="M7.018 18.83h7.338m-4.058 0l6.176-8.165a.141.141 0 00-.005-.177L10.756 3.8"/><path fill-rule="evenodd" clip-rule="evenodd" d="M11.862 3.144a.423.423 0 00-.155-.578L9.691 1.4a.423.423 0 00-.579.155L8.028 3.434a.453.453 0 01-.415.218 3.989 3.989 0 00-3.4 1.636c-.137.189-.066.45.136.566l3.086 1.782 3.086 1.782c.203.116.464.048.56-.166a3.989 3.989 0 00-.284-3.761.453.453 0 01-.019-.47l1.084-1.877z" fill="#93939F"/></g><defs><clipPath id="clip0"><path fill="#fff" d="M0 0h20v20H0z"/></clipPath></defs></svg>
